X: 31216
T: Paddy Fahey's
R: reel
M: 4/4
K: Fmajor
f2 dg fdcA|~F2 AF cFAc|fedg fdcA|FG A/B/c dG G2|
zf dg fdcA|~F2 AF cFAc|agf/g/a g2 f/e/d|c2 Ac dGGA||
B2 Gd B/A/G EG|F2 AF cFAd|B2 Gd B/A/G EG|FdcA dGGA|
ABGd B/A/G EG|F2 AF cFAc|ag f/g/a g2 f/e/d|c2 Ac dG G2||

